common/resources/fonts/svg/crop.svg

<?xml version="1.0" encoding="UTF-8" standalone="no"?>
<svg width="1024px" height="1024px" viewBox="0 0 1024 1024" version="1.1" xmlns="http://www.w3.org/2000/svg" xmlns:xlink="http://www.w3.org/1999/xlink">
    <!-- Generator: Sketch 3.8.3 (29802) - http://www.bohemiancoding.com/sketch -->
    <title>crop</title>
    <desc>Created with Sketch.</desc>
    <defs></defs>
    <g id="Page-1" stroke="none" stroke-width="1" fill="none" fill-rule="evenodd">
        <g id="crop" fill="#221F20">
            <path d="M241.152297,58.5041479 L241.152297,230.893345 L48.236901,230.893345 L48.236901,319.094264 L241.152297,319.094264 L241.152297,793.11495 L694.657808,793.11495 L694.657808,965.504148 L782.847703,965.504148 L782.847703,793.11495 L975.763099,793.11495 L975.763099,704.925055 L782.847703,704.925055 L782.847703,289.164819 L906.225367,165.787155 L859.462675,119.01344 L747.582769,230.893345 L329.342192,230.893345 L329.342192,58.5041479 L241.152297,58.5041479 Z M329.342192,319.094264 L659.392874,319.094264 L329.342192,649.133923 L329.342192,319.094264 Z M694.657808,377.354714 L694.657808,704.925055 L367.09849,704.925055 L694.657808,377.354714 Z" id="path"></path>
        </g>
    </g>
</svg>

<svg width="1024" height="1024" viewBox="0 0 1024 1024">
    <path d="M241.152 58.504v172.39H48.237v88.2h192.915v474.021h453.506v172.39h88.19v-172.39h192.915v-88.19H782.848v-415.76l123.377-123.378-46.762-46.774-111.88 111.88h-418.24V58.504h-88.19zm88.19 260.59h330.05l-330.05 330.04v-330.04zm365.316 58.26v327.571h-327.56l327.56-327.57z" fill="#221F20" fill-rule="evenodd"/>
</svg>
